X: 144
T: Missa Tous les regretz / Credo
N: Derived from Rue1031c-Missa_Tous_les_regretz-Credo.krn
C: Pierre de la Rue
%%abc-version 2.0
%%abcx-abcm2ps-target-version 5.9.1 (29 Sep 2008)
%%abc-creator hum2abc beta
%%abcx-conversion-date 2019/02/17 08:01:15
%%abc-edited-by Jesse Rodin
%%abc-edited-by Chris Gage 06-11-2013
%%abcx-initial-encoding-date 2013/08/05/
%%humdrum-veritas 3357268036
%%humdrum-veritas-data 65294596
%%linebreak <none>
%%barnumbers 0
L: 1/4
M: 2/1
Q: 1/2=120
%%staves [1 2 3 4]
V: 1 clef=treble
V: 2 clef=treble-8
V: 3 clef=treble-8
V: 4 clef=bass
K: C
[V:1] z8 | 
[V:2] d8 | 
[V:3] z8 | 
[V:4] z8 | 
[V:1] z8 | 
[V:2] d4d2cB | 
[V:3] z8 | 
[V:4] z8 | 
[V:1] A8 | 
[V:2] d2c3BAG | 
[V:3] z8 | 
[V:4] z8 | 
[V:1] A4A2GF | 
[V:2] F8 | 
[V:3] z8 | 
[V:4] D,8 | 
[V:1] A2G2GFED | 
[V:2] c4G2A2- | 
[V:3] z8 | 
[V:4] C,4C,4 | 
[V:1] C8 | 
[V:2] A2GFEDE2 | 
[V:3] A8 | 
[V:4] A,,2C,2C,B,,A,,G,, | 
[V:1] z4z2A2 | 
[V:2] F2A2A2A2 | 
[V:3] A4A4 | 
[V:4] F,,8 | 
[V:1] A2A2c4- | 
[V:2] c4c4- | 
[V:3] A4A2GF | 
[V:4] z2A,,2A,,2A,,2 | 
[V:1] c4c2c2- | 
[V:2] c4G4 | 
[V:3] A2G3FED | 
[V:4] C,8 | 
[V:1] c2A2_B4 | 
[V:2] A4G4 | 
[V:3] C2F4E2 | 
[V:4] A,,2F,,2G,,4 | 
[V:1] A8 | 
[V:2] z4c3B | 
[V:3] F8 | 
[V:4] F,,4F,3F, | 
[V:1] A4A2GF | 
[V:2] A2G2F4 | 
[V:3] c6c2 | 
[V:4] F,2F,4E,D, | 
[V:1] A2G3FED | 
[V:2] E4G4 | 
[V:3] c2c2c4 | 
[V:4] C,8 | 
[V:1] C2F4E2 | 
[V:2] A2F2G4 | 
[V:3] c4B4 | 
[V:4] z8 | 
[V:1] F2C2D2F2- | 
[V:2] F4z2D2 | 
[V:3] A8 | 
[V:4] z2F,2F,3E, | 
[V:1] F2E4C2 | 
[V:2] F2G2A3G/A/ | 
[V:3] z8 | 
[V:4] D,2C,3B,,A,,2 | 
[V:1] DCB,A,B,4 | 
[V:2] B2A4^G2 | 
[V:3] z8 | 
[V:4] G,,2A,,2E,4 | 
[V:1] A,8 | 
[V:2] A4z2E2 | 
[V:3] z8 | 
[V:4] z2A,,2D,2C,2 | 
[V:1] z4z2D2 | 
[V:2] A2G2A2B2 | 
[V:3] z8 | 
[V:4] D,2E,2F,3E, | 
[V:1] E2C2E3F | 
[V:2] c2c4BA | 
[V:3] z8 | 
[V:4] C,4z2C,2 | 
[V:1] G3FD4 | 
[V:2] G4z2G2 | 
[V:3] z8 | 
[V:4] E,2F,2G,4- | 
[V:1] z2E2F2G2 | 
[V:2] B2c2d2cB | 
[V:3] z8 | 
[V:4] G,2F,E,D,2E,2 | 
[V:1] A2GFEDF2 | 
[V:2] A3BcBAG | 
[V:3] z8 | 
[V:4] F,D,F,G,A,2A,,2 | 
[V:1] E2D3^CC2 | 
[V:2] A2F2E4 | 
[V:3] z8 | 
[V:4] C,2D,2A,,4 | 
[V:1] D8 | 
[V:2] D4z2d2 | 
[V:3] A8- | 
[V:4] D,8- | 
[V:1] z4A4 | 
[V:2] d4d4 | 
[V:3] A8 | 
[V:4] D,8 | 
[V:1] A4A4 | 
[V:2] c4d4- | 
[V:3] A4A4 | 
[V:4] z4D,4 | 
[V:1] A4A4 | 
[V:2] d2cBA4 | 
[V:3] A4A4 | 
[V:4] D,4D,4 | 
[V:1] B3AG2B2- | 
[V:2] G4z2G2 | 
[V:3] d8- | 
[V:4] G,,4G,,4 | 
[V:1] B2AGA2G2 | 
[V:2] B3cA2B2- | 
[V:3] d8 | 
[V:4] G,,2G,2F,2G,2- | 
[V:1] B3cA2G2- | 
[V:2] B2G2A2B2- | 
[V:3] d8 | 
[V:4] G,2G,,2F,,2G,,2 | 
[V:1] GEF2G2B2- | 
[V:2] BcA2G4- | 
[V:3] d4d4 | 
[V:4] D,4G,,2G,2- | 
[V:1] B2AGA2B2 | 
[V:2] G4d4 | 
[V:3] d4d4 | 
[V:4] G,2F,E,F,2G,2 | 
[V:1] c3BG4 | 
[V:2] e8- | 
[V:3] c8- | 
[V:4] C,8- | 
[V:1] z2c2c2G2 | 
[V:2] e8 | 
[V:3] c8 | 
[V:4] C,8 | 
[V:1] A3GE4 | 
[V:2] z2c2c2G2 | 
[V:3] z8 | 
[V:4] z2C,2C,2C,2 | 
[V:1] z4z2c2 | 
[V:2] A3GE4- | 
[V:3] z8 | 
[V:4] F,4C,4 | 
[V:1] c2G2A3G | 
[V:2] E4z2c2 | 
[V:3] z8 | 
[V:4] z2C,2F,3E, | 
[V:1] E2E2E4 | 
[V:2] c2G2A3G | 
[V:3] z8 | 
[V:4] C,2C,2C,2C,2 | 
[V:1] z2E2G4 | 
[V:2] E2E2E3F | 
[V:3] z8 | 
[V:4] C,4C,4- | 
[V:1] GFEDC2E2 | 
[V:2] G2A3Bc2- | 
[V:3] z8 | 
[V:4] C,8 | 
[V:1] F2D2E2C2 | 
[V:2] c2B4A2- | 
[V:3] z8 | 
[V:4] D,4C,4 | 
[V:1] D4z4 | 
[V:2] A2^G^F^G4 | 
[V:3] z8 | 
[V:4] B,,8 | 
[V:1] z2E2E3F | 
[V:2] A8 | 
[V:3] z4c4- | 
[V:4] A,,8 | 
[V:1] G2A3Bc2- | 
[V:2] z8 | 
[V:3] c8 | 
[V:4] z8 | 
[V:1] c2B4A2- | 
[V:2] z8 | 
[V:3] d4c4 | 
[V:4] z8 | 
[V:1] A2^G^FG4 | 
[V:2] z4z2d2 | 
[V:3] B8 | 
[V:4] z8 | 
[V:1] A8 | 
[V:2] c2c2f4 | 
[V:3] A8 | 
[V:4] z4z2D,2 | 
[V:1] z8 | 
[V:2] e4A4 | 
[V:3] z8 | 
[V:4] D,2C,2F,4 | 
[V:1] z8 | 
[V:2] z2e4dc | 
[V:3] z8 | 
[V:4] E,4A,,4 | 
[V:1] z8 | 
[V:2] d2e2c2BA | 
[V:3] z8 | 
[V:4] z2E,4D,C, | 
[V:1] z8 | 
[V:2] B2c2A4 | 
[V:3] z8 | 
[V:4] D,2E,2C,2B,,A,, | 
[V:1] z8 | 
[V:2] G2A4GF | 
[V:3] z8 | 
[V:4] B,,2C,2A,,2D,2- | 
[V:1] z8 | 
[V:2] E4z2d2- | 
[V:3] z8 | 
[V:4] D,2^C,2D,4- | 
[V:1] z8 | 
[V:2] d2cBc2d2 | 
[V:3] z8 | 
[V:4] D,4z2G,2- | 
[V:1] z8 | 
[V:2] e2f4ed | 
[V:3] z8 | 
[V:4] G,2F,E,F,2G,2 | 
[V:1] z8 | 
[V:2] c2d3ce2- | 
[V:3] z8 | 
[V:4] A,2_B,3A,G,F, | 
[V:1] z8 | 
[V:2] e2d4^c2 | 
[V:3] z8 | 
[V:4] G,F,E,D,E,4 | 
[V:1] z4F4 | 
[V:2] d8 | 
[V:3] A8 | 
[V:4] D,8 | 
[V:1] F4F4 | 
[V:2] z4d4 | 
[V:3] A4A4 | 
[V:4] z4D,4 | 
[V:1] G4G4- | 
[V:2] B2B2c3d | 
[V:3] G4G4 | 
[V:4] E,6D,C, | 
[V:1] G2FEE4 | 
[V:2] e2e4dc | 
[V:3] c6BA | 
[V:4] C,8 | 
[V:1] z4E4 | 
[V:2] c8- | 
[V:3] G8 | 
[V:4] C,4C,4- | 
[V:1] E4E4 | 
[V:2] c4c4 | 
[V:3] z4G4 | 
[V:4] C,2B,,2A,,2G,,2 | 
[V:1] F4F4- | 
[V:2] c8- | 
[V:3] A4A4 | 
[V:4] F,,8- | 
[V:1] F4F4 | 
[V:2] c8 | 
[V:3] A4A4 | 
[V:4] F,,8 | 
[V:1] A3GGFG2- | 
[V:2] z8 | 
[V:3] c3BBAB2 | 
[V:4] z8 | 
[V:1] G2FED4 | 
[V:2] z8 | 
[V:3] AGc4B2 | 
[V:4] z8 | 
[V:1] C2A2A2G2 | 
[V:2] z8 | 
[V:3] c8 | 
[V:4] z8 | 
[V:1] A2GFEDG2- | 
[V:2] z8 | 
[V:3] z2c2c2B2 | 
[V:4] z8 | 
[V:1] G2F4E2 | 
[V:2] z8 | 
[V:3] c2BAG4 | 
[V:4] z8 | 
[V:1] F4F4 | 
[V:2] c8 | 
[V:3] F4A4 | 
[V:4] F,8 | 
[V:1] F2F2A4 | 
[V:2] c4c4 | 
[V:3] A4A4 | 
[V:4] F,4F,4 | 
[V:1] A2F4ED | 
[V:2] d6c2 | 
[V:3] A4A4 | 
[V:4] D,4F,4 | 
[V:1] E4z2E2- | 
[V:2] c4z2c2- | 
[V:3] G8 | 
[V:4] C,8 | 
[V:1] EFG2E2G2- | 
[V:2] cde2c2e2- | 
[V:3] z4G4 | 
[V:4] z4C,4 | 
[V:1] G2FEF4 | 
[V:2] edc4B2 | 
[V:3] G2A4F2 | 
[V:4] C,4D,4 | 
[V:1] E8- | 
[V:2] c4c4- | 
[V:3] G2A2G2A2- | 
[V:4] C,8 | 
[V:1] E8 | 
[V:2] c2BAG2c2 | 
[V:3] A2GFE2A2 | 
[V:4] A,,2B,,2C,4 | 
[V:1] z4E4 | 
[V:2] B2A2c4- | 
[V:3] G2F2G4 | 
[V:4] z4C,4 | 
[V:1] F4F4 | 
[V:2] c4c3B | 
[V:3] F4A4 | 
[V:4] F,,4F,,4 | 
[V:1] F4F4- | 
[V:2] A2G2F2E2 | 
[V:3] A4A4 | 
[V:4] F,,6G,,A,, | 
[V:1] F2EDC4 | 
[V:2] D4E2F2- | 
[V:3] F4A4- | 
[V:4] _B,,4A,,4 | 
[V:1] D8 | 
[V:2] FEDCD4 | 
[V:3] A2GFG4 | 
[V:4] _B,,8 | 
[V:1] C8- | 
[V:2] E4A4- | 
[V:3] A3GE2F2- | 
[V:4] A,,8- | 
[V:1] C8 | 
[V:2] A8 | 
[V:3] F2EDE4 | 
[V:4] A,,8 | 
[V:1] z2F2D2E2 | 
[V:2] F4G4 | 
[V:3] D4z4 | 
[V:4] z2D,2B,,2C,2 | 
[V:1] F3GA2B2 | 
[V:2] z2A2F2G2 | 
[V:3] z8 | 
[V:4] D,6C,B,, | 
[V:1] c3BAGB2- | 
[V:2] A2c4B2 | 
[V:3] z2A2A2G2 | 
[V:4] A,,2A,2F,2G,2 | 
[V:1] B2A3^GG2 | 
[V:2] c2A2e4 | 
[V:3] c4B4 | 
[V:4] A,4E,4 | 
[V:1] A2FEDCE2- | 
[V:2] z2d2B2c2- | 
[V:3] A2D2D2C2 | 
[V:4] z2A,2F,2G,2 | 
[V:1] E2D3^CC2 | 
[V:2] cBAGA4 | 
[V:3] F4E4 | 
[V:4] A,4A,,4 | 
[V:1] D8 ||  
[V:2] A8 ||  
[V:3] D8 ||  
[V:4] D,8 ||  
[V:1]  [K:C] [K:clef=treble][M:2/1]z8 | 
[V:2]  [K:C] [K:clef=treble-8][M:2/1]z8 | 
[V:3]  [K:C] [K:clef=treble-8][M:2/1]z8 | 
[V:4]  [K:C] [K:clef=bass][M:2/1]D,6D,2 | 
[V:1] z8 | 
[V:2] z8 | 
[V:3] A6A2 | 
[V:4] F,4D,4 | 
[V:1] z8 | 
[V:2] z8 | 
[V:3] c4A4 | 
[V:4] E,4F,4 | 
[V:1] z8 | 
[V:2] z8 | 
[V:3] B4c4 | 
[V:4] G,3F,E,D,F,2- | 
[V:1] z8 | 
[V:2] z8 | 
[V:3] d3cBAc2- | 
[V:4] F,2E,D,E,3F, | 
[V:1] z8 | 
[V:2] z8 | 
[V:3] c2BAB4 | 
[V:4] G,2A,4^G,2 | 
[V:1] E4E3F | 
[V:2] c4c4- | 
[V:3] A8 | 
[V:4] A,4A,,4 | 
[V:1] G2A4G2 | 
[V:2] c2F2c3B | 
[V:3] z8 | 
[V:4] z8 | 
[V:1] E2F3EE2- | 
[V:2] c2d4c2- | 
[V:3] z8 | 
[V:4] z8 | 
[V:1] E2D2E4 | 
[V:2] cBB2c4 | 
[V:3] z4A4- | 
[V:4] z8 | 
[V:1] E4E4 | 
[V:2] c4c4 | 
[V:3] A4A4 | 
[V:4] A,,4A,,4 | 
[V:1] G6FE | 
[V:2] d8 | 
[V:3] B8 | 
[V:4] G,,8 | 
[V:1] F2E4DC | 
[V:2] c6BA | 
[V:3] A4G4- | 
[V:4] A,,4C,4 | 
[V:1] DCDEF2E2- | 
[V:2] B2d3cA2- | 
[V:3] G2F2D2E2 | 
[V:4] G,,4D,2C,2 | 
[V:1] E2D4^C2 | 
[V:2] A2A2A3G/F/ | 
[V:3] F3GE4 | 
[V:4] D,4A,,4 | 
[V:1] D8 | 
[V:2] _B2A3GF2- | 
[V:3] D8 | 
[V:4] z4D,4 | 
[V:1] z8 | 
[V:2] F2EDE2F2 | 
[V:3] z4A4- | 
[V:4] D,4C,2D,2- | 
[V:1] z8 | 
[V:2] D8 | 
[V:3] A4A4 | 
[V:4] D,E,F,4E,D, | 
[V:1] z8 | 
[V:2] z8 | 
[V:3] G2A3Bc2- | 
[V:4] E,2A,,2A,,4 | 
[V:1] z8 | 
[V:2] z8 | 
[V:3] c2BAB4 | 
[V:4] A,2A,4G,2 | 
[V:1] z8 | 
[V:2] z8 | 
[V:3] A4z4 | 
[V:4] F,2E,D,E,2F,2 | 
[V:1] z8 | 
[V:2] z8 | 
[V:3] d2d4c2 | 
[V:4] D,4F,4 | 
[V:1] z8 | 
[V:2] z8 | 
[V:3] B2AGA2B2 | 
[V:4] G,4F,2G,2- | 
[V:1] z8 | 
[V:2] z8 | 
[V:3] G4B4 | 
[V:4] G,2F,E,D,4 | 
[V:1] z8 | 
[V:2] z8 | 
[V:3] c4B2c2- | 
[V:4] C,4z2C,2 | 
[V:1] z8 | 
[V:2] z8 | 
[V:3] c2BAGABc | 
[V:4] E,2F,2G,3E, | 
[V:1] z8 | 
[V:2] z8 | 
[V:3] d2c4B2 | 
[V:4] F,E,D,C,D,4 | 
[V:1] z8 | 
[V:2] G6G2 | 
[V:3] c8 | 
[V:4] C,8 | 
[V:1] z4G4- | 
[V:2] A4B4 | 
[V:3] z8 | 
[V:4] z8 | 
[V:1] G2G2A4 | 
[V:2] c8 | 
[V:3] z8 | 
[V:4] z8 | 
[V:1] B4c4- | 
[V:2] d4c3d | 
[V:3] z8 | 
[V:4] z8 | 
[V:1] c2c2c4 | 
[V:2] e2f4e2- | 
[V:3] z8 | 
[V:4] z8 | 
[V:1] G3AB2c2- | 
[V:2] e2dcd2e2 | 
[V:3] z8 | 
[V:4] z8 | 
[V:1] c2B4AG | 
[V:2] A2d4cB | 
[V:3] z8 | 
[V:4] z8 | 
[V:1] A2B2E2A2- | 
[V:2] c2d3cBA | 
[V:3] z8 | 
[V:4] z8 | 
[V:1] A^GG2A4 | 
[V:2] B4A4 | 
[V:3] z8 | 
[V:4] z4A,,3B,, | 
[V:1] z8 | 
[V:2] z8 | 
[V:3] E3FG2A2 | 
[V:4] C,2D,2E,2F,2 | 
[V:1] z8 | 
[V:2] z8 | 
[V:3] B2c2d4- | 
[V:4] G,6G,2 | 
[V:1] z8 | 
[V:2] z8 | 
[V:3] d2d2c2c2 | 
[V:4] F,2F,2E,4 | 
[V:1] z8 | 
[V:2] z8 | 
[V:3] B4z2B2 | 
[V:4] z2E,2G,4- | 
[V:1] z8 | 
[V:2] z8 | 
[V:3] d6d2 | 
[V:4] G,2G,2G,2G,2 | 
[V:1] z8 | 
[V:2] z8 | 
[V:3] d2d2c2BA | 
[V:4] F,2E,D,E,2A,2- | 
[V:1] z8 | 
[V:2] z8 | 
[V:3] B2B2A2c2- | 
[V:4] A,2^G,2A,2E,2- | 
[V:1] z8 | 
[V:2] z8 | 
[V:3] cBd3cBA | 
[V:4] E,D,F,3E,D,C, | 
[V:1] z8 | 
[V:2] z8 | 
[V:3] B2A4^G2 | 
[V:4] D,C,B,,A,,B,,4 | 
[V:1] z4E4 | 
[V:2] c8 | 
[V:3] A8- | 
[V:4] A,,4A,,4 | 
[V:1] E4E4 | 
[V:2] c4c4 | 
[V:3] A8- | 
[V:4] A,,4A,,4 | 
[V:1] A2GFE2F2- | 
[V:2] c8 | 
[V:3] A8- | 
[V:4] A,,3B,,C,2F,,2- | 
[V:1] F2EDC2F2- | 
[V:2] c3BAGF2- | 
[V:3] A8- | 
[V:4] F,,2F,3E,D,C, | 
[V:1] FEEDF2E2- | 
[V:2] FGA4GF | 
[V:3] A8- | 
[V:4] D,2C,B,,A,,4 | 
[V:1] E2D3^CC2 | 
[V:2] GFEDE4 | 
[V:3] A8 | 
[V:4] C,2D,2A,,4 | 
[V:1] D8 | 
[V:2] D4d4- | 
[V:3] z8 | 
[V:4] D,8- | 
[V:1] z4A4- | 
[V:2] d2d2d2d2 | 
[V:3] z8 | 
[V:4] D,8- | 
[V:1] A2A2A2A2 | 
[V:2] d6cB | 
[V:3] z8 | 
[V:4] D,8 | 
[V:1] A8 | 
[V:2] A2d2d2c2- | 
[V:3] z8 | 
[V:4] z8 | 
[V:1] A6GF | 
[V:2] cBAGF4 | 
[V:3] z8 | 
[V:4] z8 | 
[V:1] A2G3FED | 
[V:2] c6c2 | 
[V:3] z8 | 
[V:4] z8 | 
[V:1] C2EFGAG2- | 
[V:2] c3BBAc2- | 
[V:3] z8 | 
[V:4] z8 | 
[V:1] G2F3EE2 | 
[V:2] c2BAG4 | 
[V:3] z8 | 
[V:4] z8 | 
[V:1] F8 | 
[V:2] F8 | 
[V:3] A8 | 
[V:4] D,6C,B,, | 
[V:1] z8 | 
[V:2] z8 | 
[V:3] A4A4 | 
[V:4] A,,2D,4C,2- | 
[V:1] z8 | 
[V:2] z8 | 
[V:3] A2A4GF | 
[V:4] C,B,,A,,G,,F,,4 | 
[V:1] z8 | 
[V:2] z8 | 
[V:3] A2G3FED | 
[V:4] C,6C,2 | 
[V:1] z8 | 
[V:2] z8 | 
[V:3] C2EFGAG2- | 
[V:4] C,3B,,B,,A,,C,2 | 
[V:1] z8 | 
[V:2] z8 | 
[V:3] G2F3EE2 | 
[V:4] A,,2_B,,2G,,4 | 
[V:1] F8 | 
[V:2] c8 | 
[V:3] F8- | 
[V:4] F,,8- | 
[V:1] F4F4 | 
[V:2] c4c4 | 
[V:3] F8 | 
[V:4] F,,8 | 
[V:1] E4F4 | 
[V:2] c4d4 | 
[V:3] z8 | 
[V:4] z8 | 
[V:1] G4G4 | 
[V:2] B4B4 | 
[V:3] z8 | 
[V:4] z8 | 
[V:1] A8 | 
[V:2] A8 | 
[V:3] z4c4- | 
[V:4] F,6F,2 | 
[V:1] A6A2 | 
[V:2] f6f2 | 
[V:3] c2c2c4 | 
[V:4] F,4F,4 | 
[V:1] A2A2A4 | 
[V:2] f2f2f4 | 
[V:3] c4c4 | 
[V:4] F,8 | 
[V:1] G4z2G2 | 
[V:2] e4z2e2 | 
[V:3] c8 | 
[V:4] C,8 | 
[V:1] G2GFEDF2 | 
[V:2] edcBc2A2 | 
[V:3] z2G2G2F2 | 
[V:4] z2C,2C,2D,2 | 
[V:1] F2E3DD2 | 
[V:2] B2c2A4 | 
[V:3] D2E2F4 | 
[V:4] D,2C,2D,4 | 
[V:1] E4A4- | 
[V:2] A8 | 
[V:3] E4F4- | 
[V:4] A,,4F,,4- | 
[V:1] A2A2A2A2 | 
[V:2] c6c2 | 
[V:3] F2F2F2F2 | 
[V:4] F,,2F,,2F,,2F,,2 | 
[V:1] G2ABc2B2- | 
[V:2] c3defe2- | 
[V:3] E8- | 
[V:4] C,3B,,A,,2G,,2 | 
[V:1] B2A3^GG2 | 
[V:2] edc2B4 | 
[V:3] E8 | 
[V:4] A,,4E,4 | 
[V:1] A8- | 
[V:2] A4z2A2 | 
[V:3] C2DEF2E2- | 
[V:4] A,,8- | 
[V:1] A8 | 
[V:2] c2def2e2- | 
[V:3] E2D3CC2 | 
[V:4] A,,8 | 
[V:1] z4A4 | 
[V:2] e2d3^c^c2 | 
[V:3] D4E4 | 
[V:4] z4A,,4 | 
[V:1] F4F4 | 
[V:2] d4d4- | 
[V:3] D8- | 
[V:4] _B,,4B,,4- | 
[V:1] G4G4 | 
[V:2] d2d2_B2_B2 | 
[V:3] D8 | 
[V:4] B,,2A,,2G,,4 | 
[V:1] A4A2F2- | 
[V:2] c4c4 | 
[V:3] z8 | 
[V:4] F,,4F,4 | 
[V:1] F2EDE4 | 
[V:2] c2c2c4 | 
[V:3] A4A2A2 | 
[V:4] F,2F,2C,4- | 
[V:1] z2E2E2E2 | 
[V:2] z2c2cAcd | 
[V:3] G4z2G2 | 
[V:4] C,4z2C,2 | 
[V:1] G4G4 | 
[V:2] e2e2d4 | 
[V:3] E3FG2G2 | 
[V:4] C,2C,2G,,2G,,2 | 
[V:1] F2EDCB,E2- | 
[V:2] d3c/d/e2A2 | 
[V:3] A4A2E2 | 
[V:4] D,2C,B,,A,,2A,,2 | 
[V:1] E2D4^C2 | 
[V:2] B2G2A3G/A/ | 
[V:3] GFEDE4 | 
[V:4] G,,2B,,2A,,4 | 
[V:1] D8 | 
[V:2] B2A2B2A2- | 
[V:3] D8 | 
[V:4] z8 | 
[V:1] z4D4 | 
[V:2] A2G4^F2 | 
[V:3] z4D4 | 
[V:4] z4D,4 | 
[V:1] B,6B,2 | 
[V:2] G4z2G2 | 
[V:3] D6D2 | 
[V:4] G,,6G,,2 | 
[V:1] B,4B,4 | 
[V:2] G2G2G4 | 
[V:3] D2E4D2 | 
[V:4] G,,8 | 
[V:1] D3CA,2D2- | 
[V:2] F2G2A2B2- | 
[V:3] D4D4 | 
[V:4] z2G,,2F,,2G,,2 | 
[V:1] D2CB,A,2B,A, | 
[V:2] _BAG4^F2 | 
[V:3] D4z2D2 | 
[V:4] _B,,3C,D,4 | 
[V:1] B,8 | 
[V:2] G8 | 
[V:3] D2E2D2G2- | 
[V:4] G,,8- | 
[V:1] z2D2D2D2 | 
[V:2] z4z2d2 | 
[V:3] G2FED4 | 
[V:4] G,,8 | 
[V:1] A,2D3CB,2 | 
[V:2] d2d2A2d2- | 
[V:3] F8 | 
[V:4] z2D,2D,2D,2 | 
[V:1] A,2D4E2 | 
[V:2] d2cBABcB | 
[V:3] F6E2- | 
[V:4] D,2D,2D,2C,2- | 
[V:1] F2G2A4 | 
[V:2] AGG4^F2 | 
[V:3] E2D3CC2 | 
[V:4] C,2B,,2A,,4 | 
[V:1] B3GG4 | 
[V:2] G8 | 
[V:3] D4z2E2 | 
[V:4] G,,4C,4 | 
[V:1] z2G3AB2 | 
[V:2] z8 | 
[V:3] G4G4 | 
[V:4] C,4B,,4 | 
[V:1] c4c2A2- | 
[V:2] z4z2A2 | 
[V:3] A6F2- | 
[V:4] A,,8- | 
[V:1] A2GFE4 | 
[V:2] c4c4 | 
[V:3] F2EDE4 | 
[V:4] A,,8 | 
[V:1] z4z2E2 | 
[V:2] d2f4e2- | 
[V:3] D4z4 | 
[V:4] z8 | 
[V:1] G4G4 | 
[V:2] e2dcB4 | 
[V:3] z8 | 
[V:4] z8 | 
[V:1] A2c4B2 | 
[V:2] A2e3cd2- | 
[V:3] z8 | 
[V:4] z8 | 
[V:1] B2A3^GG2 | 
[V:2] dAc2B4 | 
[V:3] z8 | 
[V:4] z8 | 
[V:1] A4F4 | 
[V:2] A4d4 | 
[V:3] z4A4 | 
[V:4] z4D,4 | 
[V:1] G2G4F2 | 
[V:2] e4e2A2- | 
[V:3] c4c2c2- | 
[V:4] C,4C,4- | 
[V:1] E2D2C2E2 | 
[V:2] A2GFE2c2 | 
[V:3] c2B2A2G2 | 
[V:4] C,4C,4 | 
[V:1] DCF4E2 | 
[V:2] A2B2c3B | 
[V:3] F4G4 | 
[V:4] D,4C,4 | 
[V:1] F2E2F2ED | 
[V:2] cde4d2- | 
[V:3] A8- | 
[V:4] F,,2C,2D,4 | 
[V:1] E4D2A2- | 
[V:2] d^c^c2d2=cB | 
[V:3] A8 | 
[V:4] A,,4D,2F,2- | 
[V:1] AGF2E2F2 | 
[V:2] A4z2d2- | 
[V:3] z2A4F2 | 
[V:4] F,E,D,2C,2D,2 | 
[V:1] D2G3FED | 
[V:2] dcBAG2AG | 
[V:3] G3FEDF2- | 
[V:4] G,,4_B,,4 | 
[V:1] C2D4^C2 | 
[V:2] A4A4- | 
[V:3] F2EDE4 | 
[V:4] A,,8 | 
[V:1] D8- | 
[V:2] A8- | 
[V:3] D8- | 
[V:4] z4D,4 | 
[V:1] D8 |]  
[V:2] A8 |]  
[V:3] D8 |]  
[V:4] D,8 |]  



